X: 496
T: Bülbül-ü Şeydâya Döndüm
C: Şerif İçli
O: Turkey
F: http://compmusic.upf.edu/node/140
N: beyati--sarki--agiraksak--bulbul-u_seydaya--serif_icli
N: makam= beyati
N: form= sarki
N: usul= agiraksak = 9/4
M: 9/4
L: 1/16
K: C _2/4B   
Q: 1/4=69
%%MIDI tuningsystem comma53
G2A4f2 e2fe d4 d2ed c2B2 cdc2 d2ed d4  | \
w:  ARANAĞME  | 
dedf e2d2 c2B2 A2G2 ABcd efge f4 gfef g4  | 
w:   | 
gfef gag_b a2g2 f2e2 fefg agfe dcBd c2B2 A2G2  | 
w:   | 
egf4fe _1/4e3d (3g^f_7/8edc c3B cBBA A3=f =edcB A4  | 
w:   | 
G2A4f2 e2fe d4 d2ed c2B2 cdc2 d2ed d4  | \
w:  ARANAĞME  | 
dedf e2d2 c2B2 A2G2 ABcd efge f4 gfef g4  | 
w:   | 
gfef gag_b a2g2 f2e2 fefg agfe dcBd c2B2 A2G2  | 
w:   | 
egf4fe _1/4e3d (3g^f_7/8edc c3B cBBA A8 z4  | \
w:   | 
z8 z2c4d2 d8 d2ed d4 c4  | 
w:  Bül bül_ ü  şey  | 
d2ef gfed d2de d2e2 d2c4d2 cBA2 B2c2 dfed  | 
w:  *  *  *  *  *  *  *  *  dâ *  *  ya  dön *  *  düm   | 
d3e cBBA A2A4f2 f2fe f4 g2e2 f2d2 e2c2  | \
w:  *  SAZ *  *  *  *  *  deh ri  gör *  *  *  mez   | 
d2ef edcB d2A6 A3G B2c2 d6ef eddc  | 
w:  *  *  *  *  *  *  *  *  göz *  *  *  le rim   SAZ  | 
d3g fede d2f2 e2d2 d2ed c2(3BAB d8 e4  | \
w:  *  *  *  *  *  *  *  Â *  şı kım  *  *  *  *  *  *  Ley  | 
fede d2c4d4f2 e2d2 c2B2 A3B c2d2 e2c2  | 
w:  *  *  *  *  *  *  lâ mı  gur *  *  *  bet   | 
d2B2 cBAB G2G4g2 g6a2 gff2 fee2 edd2  | \
w:  *  *  *  *  *  *  *  el de  her  *  dem   | 
dcc2 cBBA A2AB cdef edcB d2BA A6ef eddc  | 
w:  *  *  *  *  *  *  *  *  öz *  *  *  *  *  *  *  *  *  *  le *  rim   SAZ  | 
d3g fede d2f2 e2d2 d2ed c2(3BAB d8 e4  | \
w:  *  *  *  *  *  *  *  Â *  şı kım  *  *  *  *  *  *  Ley  | 
fede d2c4d4f2 e2d2 c2B2 A3B c2d2 e2c2  | 
w:  *  *  *  *  *  *  lâ mı  gur *  *  *  bet   | 
d2B2 cBAB G2G4g2 g6a2 gff2 fee2 edd2  | \
w:  *  *  *  *  *  *  *  el de  her  *  dem   | 
dcc2 cBBA A2AB cdef edcB d2BA A6g2 ^3/4f2g2  | 
w:  *  *  *  *  *  *  *  *  öz *  *  *  *  *  *  *  *  *  *  le *  rim   SAZ  | 
a8 z2g4a2 a8 gfed cBAB c2d2  | cBBA A4 A2_b4b2 b3a g2a2 ^3/4f4 g4 g2b2  | 
w:  *  Fec ri  yok  meh  |  *  *  *  *  *  *  tâ bı  yok  *  *  *  son  | 
a2g2 ^f2_7/8e2 d2d4ed c2cB c4 g2=e2 =f2d2 e2c2  | \
w:  *  *  *  *  *  suz  şeb_ *  i  *  *  *  yel  | 
d2ef edcB d2A6 A3G B2c2 d6ef eddc  | 
w:  *  *  *  *  *  *  *  *  dâ *  *  *  da yım   SAZ  | 
d3g fede d2f2 e2d2 d2ed c2(3BAB d8 e4  | \
w:  *  *  *  *  *  *  *  Â *  şı kım  *  *  *  *  *  *  Ley  | 
fede d2c4d4f2 e2d2 c2B2 A3B c2d2 e2c2  | 
w:  *  *  *  *  *  *  lâ mı  gur *  *  *  bet   | 
d2B2 cBAB G2G4g2 g6a2 gff2 fee2 edd2  | \
w:  *  *  *  *  *  *  *  el de  her  *  dem   | 
dcc2 cBBA A2AB cdef edcB d2BA A6ef eddc  | 
w:  *  *  *  *  *  *  *  *  öz *  *  *  *  *  *  *  *  *  *  le *  rim   SAZ  | 
d3g fede d2f2 e2d2 d2ed c2(3BAB d8 e4  | \
w:  *  *  *  *  *  *  *  Â *  şı kım  *  *  *  *  *  *  Ley  | 
fede d2c4d4f2 e2d2 c2B2 A3B c2d2 e2c2  | 
w:  *  *  *  *  *  *  lâ mı  gur *  *  *  bet   | 
d2B2 cBAB G2G4g2 g6a2 gff2 fee2 edd2  | \
w:  *  *  *  *  *  *  *  el de  her  *  dem   | 
dcc2 cBBA A2AB cdef edcB d2BA A6|
w:  *  *  *  *  *  *  *  *  öz *  *  *  *  *  *  *  *  *  *  le *  rim    | 


